packages/astro-components-stencil/src/icons/present-to-all.svg

<svg xmlns="http://www.w3.org/2000/svg" viewBox="0 0 24 24"><g xmlns="http://www.w3.org/2000/svg" id="present-to-all" fill-rule="nonzero">
            <path d="M21 3H3c-1.11 0-2 .89-2 2v14c0 1.11.89 2 2 2h18c1.11 0 2-.89 2-2V5c0-1.11-.89-2-2-2zm-1 16.02H4c-.55 0-1-.45-1-1V5.98c0-.55.45-1 1-1h16c.55 0 1 .45 1 1v12.04c0 .55-.45 1-1 1zM10 12H8l3.65-3.65c.2-.2.51-.2.71 0L16 12h-2v4h-4v-4z"/>
        </g></svg>

<svg width="24" height="24" viewBox="0 0 24 24" fill="none" xmlns="http://www.w3.org/2000/svg">
<path fill-rule="evenodd" clip-rule="evenodd" d="M21 3H3C1.89 3 1 3.89 1 5V19C1 20.11 1.89 21 3 21H21C22.11 21 23 20.11 23 19V5C23 3.89 22.11 3 21 3ZM20 19.02H4C3.45 19.02 3 18.57 3 18.02V5.98C3 5.43 3.45 4.98 4 4.98H20C20.55 4.98 21 5.43 21 5.98V18.02C21 18.57 20.55 19.02 20 19.02ZM8 12H10V16H14V12H16L12.36 8.35C12.16 8.15 11.85 8.15 11.65 8.35L8 12Z" fill="black"/>
</svg>
